icons/op-hierarchy-16.svg

<svg width="16" height="16" viewBox="0 0 16 16" fill="none" xmlns="http://www.w3.org/2000/svg">
<path fill-rule="evenodd" clip-rule="evenodd" d="M4.79412 1C5.2327 1 5.58824 1.34822 5.58824 1.77778V4.88889C5.58824 5.03207 5.70675 5.14815 5.85294 5.14815H6.91176C7.93512 5.14815 8.76471 5.96067 8.76471 6.96296V9.2963H12.2059C12.6445 9.2963 13 9.64452 13 10.0741C13 10.5036 12.6445 10.8519 12.2059 10.8519H8.76471V13.1852C8.76471 13.3284 8.88322 13.4444 9.02941 13.4444H12.2059C12.6445 13.4444 13 13.7927 13 14.2222C13 14.6518 12.6445 15 12.2059 15H9.02941C8.00606 15 7.17647 14.1875 7.17647 13.1852V6.96296C7.17647 6.81978 7.05796 6.7037 6.91176 6.7037H5.85294C4.82959 6.7037 4 5.89118 4 4.88889V1.77778C4 1.34822 4.35554 1 4.79412 1Z" fill="#1F2328"/>
</svg>

<svg xmlns="http://www.w3.org/2000/svg" width="16" height="16" viewBox="0 0 16 16"><path d="M4.794 1c.439 0 .794.348.794.778v3.111c0 .143.119.259.265.259h1.059c1.023 0 1.853.813 1.853 1.815v2.333h3.441c.438 0 .794.349.794.778 0 .43-.356.778-.794.778H8.765v2.333c0 .143.118.259.264.259h3.177c.438 0 .794.349.794.778 0 .43-.356.778-.794.778H9.029c-1.023 0-1.853-.812-1.853-1.815V6.963a.261.261 0 0 0-.264-.259H5.853C4.83 6.704 4 5.891 4 4.889V1.778c0-.43.356-.778.794-.778Z"/></svg>
